X: 3
T: Shove The Pig's Foot A Little Closer To The Fire
R: reel
M: 4/4
L: 1/8
K: Gmaj
[D2-B2-]|[DB][Dc][DB][DA] [G,2G2] [G,E][G,F]|[G,G][G,A][G,G][G,E] [G,3D3][G,D]|[G,E][G,F][G,2G2] [D3B3][Dc]|[D2B2][D2A2] [D2A2][D2-B2]-|[DB][Dc][DB][DA] [G,2G2] [G,E][G,F]|[G,G][G,A][G,G][G,E] [G,3D3][G,D]|[G,E][G,F][G,2G2] [D3B3]F|[D2A2][G,2G2] [G,2G2][D2-B2-][DB][Dc][DB][DA] [G,2G2] [G,E][G,F]|[G,G][G,A][G,G][G,E] [G,3D3][G,D]|[G,E][G,F][G,2G2] [G3B3][Gc]|[G2B2][F2A2] [F2A2][D2-B2]-|[DB][Dc][DB][DA] [G,2G2] [G,E][G,F]|[G,G][G,A][G,G][G,E] [B,3D3][G,D]|[G,E][G,F][G,2G2] [G3B3]F|[D2A2][G,2G2] [G,2G2][G,G][DA]||:[DB][D2d2][De] [D3d3][Dd]|[De][Dd][DB][Dc] [D2d2][DB][DA]|[DB][Dc][D2d2] [d3g3][dg]|[A2e2][D2d2] [D2d2][DB][DA]|[DB][D2d2][De] [D3d3][Dd]|[De][Dd][DB][Dc] [D2d2][d2g2]|[D3B3][Dc] [DB][DA]G[DB]|[D2A2][G,2G2] [G,2G2][G,G][DA]:|


Tune 7905	Setting 19185

